X: 555
T: Pulse of My Heart - No.2   #2
T: cuisle mo .croi.de.
R: jig, air
%S: s:2 b:9(5+4)
B: O'Neill's 1850 #555
Z: Transcripton by J.B. Walsh (walsh@math.ubc.ca)
N: Compacted via repeats and multiple endings [JC]
N: Compacted by using labels and play order [JC]
P: Play A1A2 BA2
Q: "Animated."
M: 6/8
L: 1/8
%Q: 85
K: Gm
"^A"[| B>BB B2c | B>AA A2A | (G2d) (d2c) |1 B2G A2z :|2 (B2A) G2 |]
"^B"|| a |  b2g g>^fg | b2g g>^fg | b2g d>cB | c2c c>B"->A2"A |]
